X: 1
T: Dorrus Mill
M: 6/8
L: 1/8
R: jig
K: Emin
|:F | GEE FDD | ECC DEF | GEE FDD | FEE E2F 
| GEE FDD | ECC DEF | GAB AFD | B,EE E2 :||
|: F | ~G2G BAG | DFA cBA | GFG AGA | Bee e2f 
| dBB ^cAA | BGG AFF | EFG  AFD |1 B,EE E2 :|2 B,EE E3 ||
K: EDor
|: eBe gfe | fdf agf | eBe gfe | dBB B3 |
| eBe gfe | dcd fed | edB AGA |1 Bee e3 :|2 Bee e2 ||
|: f | dBB cAA | cBB B2f | dBB cAA | BGE E2f |
| dBB cAA | BGG AFF | EFG AFD | B,EE E2 :|
